; generated by Slic3r 0.9.10b on 2013-10-11 at 00:10:37

; layer_height = 0.4
; perimeters = 3
; top_solid_layers = 3
; bottom_solid_layers = 3
; fill_density = 0.4
; perimeter_speed = 30
; infill_speed = 60
; travel_speed = 130
; nozzle_diameter = 0.5
; filament_diameter = 3
; extrusion_multiplier = 1
; perimeters extrusion width = 0.53mm
; infill extrusion width = 0.53mm
; solid infill extrusion width = 0.53mm
; top infill extrusion width = 0.53mm
; first layer extrusion width = 1.00mm

G21 ; set units to millimeters
M106 S0
M140 S115 ; set bed temperature
M116 ; wait for bed temperature to be reached
M104 S225 ; set temperature
G28 ; home all axes
G1 Z5 F5000 ; lift nozzle

M104 S225 ; set temperature
M116 ; wait for temperature to be reached
G90 ; use absolute coordinates
G92 E0
M82 ; use absolute distances for extrusion
G1 F1800.000 E-1.00000
G92 E0
G1 Z0.500 F7800.000
G1 X92.740 Y92.330
G1 F1800.000 E1.00000
G1 X93.780 Y91.470 F600.000 E1.08522
G1 X94.970 Y90.830 E1.17054
G1 X96.270 Y90.440 E1.25624
G1 X97.610 Y90.310 E1.34125
G1 X102.380 Y90.310 E1.64246
G1 X103.720 Y90.440 E1.72747
G1 X105.020 Y90.830 E1.81317
G1 X106.210 Y91.470 E1.89849
G1 X107.250 Y92.330 E1.98371
G1 X108.110 Y93.370 E2.06893
G1 X108.750 Y94.560 E2.15425
G1 X109.140 Y95.860 E2.23995
G1 X109.270 Y97.200 E2.32496
G1 X109.270 Y102.800 E2.67858
G1 X109.140 Y104.140 E2.76359
G1 X108.750 Y105.440 E2.84930
G1 X108.110 Y106.630 E2.93462
G1 X107.250 Y107.670 E3.01983
G1 X106.210 Y108.530 E3.10505
G1 X105.020 Y109.170 E3.19037
G1 X103.720 Y109.560 E3.27607
G1 X102.380 Y109.690 E3.36109
G1 X97.610 Y109.690 E3.66229
G1 X96.270 Y109.560 E3.74730
G1 X94.970 Y109.170 E3.83301
G1 X93.780 Y108.530 E3.91833
G1 X92.740 Y107.670 E4.00354
G1 X91.880 Y106.630 E4.08876
G1 X91.240 Y105.440 E4.17408
G1 X90.850 Y104.140 E4.25978
G1 X90.720 Y102.800 E4.34480
G1 X90.720 Y97.200 E4.69841
G1 X90.850 Y95.860 E4.78342
G1 X91.240 Y94.560 E4.86913
G1 X91.880 Y93.370 E4.95445
G1 X92.655 Y92.433 E5.03121
G1 F1800.000 E4.03121
G92 E0
G1 X101.191 Y102.421 F7800.000
G1 F1800.000 E1.00000
G1 X101.965 Y102.390 F600.000 E1.04890
G1 X101.191 Y102.421 F7800.000
G1 X100.238 Y102.406 F600.000 E1.10911
G1 X100.238 Y102.406 F7800.000
G1 X99.285 Y102.426 F600.000 E1.16932
G1 X99.285 Y102.426 F7800.000
G1 X98.158 Y102.381 F600.000 E1.24053
G1 X98.158 Y102.381 F7800.000
G1 X98.034 Y102.398 F600.000 E1.24844
G1 F1800.000 E0.24844
G92 E0
G1 X87.257 Y105.800 F7800.000
G1 X85.500 Y104.043
G1 X85.500 Y95.957
G1 X87.257 Y94.200
G1 X98.809 Y97.571
G1 F1800.000 E1.00000
G1 X98.033 Y97.600 F600.000 E1.04903
G1 X97.858 Y97.399 E1.06582
G1 X98.809 Y97.571 F7800.000
G1 X100.238 Y97.592 F600.000 E1.15611
G1 X100.238 Y97.592 F7800.000
G1 X101.965 Y97.602 F600.000 E1.26517
M106 S255
M104 S220 ; set temperature
M140 S110 ; set bed temperature
G1 F1800.000 E0.26517
G92 E0
G1 Z0.900 F7800.000
G1 X100.000 Y100.087
G1 X105.986 Y99.955
G1 X105.986 Y100.044
G1 X105.858 Y104.800
G1 X103.373 Y102.389
G1 F1800.000 E1.00000
G1 X103.515 Y102.404 F600.000 E1.00420
G1 X103.721 Y102.193 E1.01286
G1 X103.515 Y102.404 F7800.000
G1 X103.713 Y102.590 F600.000 E1.02084
G1 X103.373 Y102.389 F7800.000
G1 X101.173 Y102.371 F600.000 E1.08553
G1 X101.173 Y102.371 F7800.000
G1 X100.478 Y102.355 F600.000 E1.10599
G1 X100.478 Y102.355 F7800.000
G1 X100.391 Y102.369 F600.000 E1.10857
G1 X100.391 Y102.369 F7800.000
G1 X100.130 Y102.366 F600.000 E1.11623
G1 X100.130 Y102.366 F7800.000
G1 X98.045 Y102.379 F600.000 E1.17757
G1 X98.045 Y102.379 F7800.000
G1 X97.325 Y102.382 F600.000 E1.19874
G1 X97.325 Y102.382 F7800.000
G1 X96.838 Y102.384 F600.000 E1.21304
G1 X96.838 Y102.384 F7800.000
G1 X96.456 Y102.394 F600.000 E1.22428
G1 X96.456 Y102.394 F7800.000
G1 X96.279 Y102.210 F600.000 E1.23179
G1 F1800.000 E0.23179
G92 E0
G1 X94.014 Y100.045 F7800.000
G1 X94.014 Y99.955
G1 X96.273 Y97.780
G1 F1800.000 E1.00000
G1 X96.339 Y97.737 F600.000 E1.00232
G1 X96.339 Y97.737 F7800.000
G1 X96.443 Y97.606 F600.000 E1.00725
G1 X96.443 Y97.606 F7800.000
G1 X96.653 Y97.607 F600.000 E1.01343
G1 X96.653 Y97.607 F7800.000
G1 X96.828 Y97.613 F600.000 E1.01858
G1 X96.828 Y97.613 F7800.000
G1 X97.042 Y97.612 F600.000 E1.02489
G1 X97.042 Y97.612 F7800.000
G1 X97.784 Y97.613 F600.000 E1.04670
G1 X97.784 Y97.613 F7800.000
G1 X97.946 Y97.624 F600.000 E1.05148
G1 X97.946 Y97.624 F7800.000
G1 X103.169 Y97.614 F600.000 E1.20505
G1 X103.518 Y97.593 E1.21533
G1 X103.713 Y97.410 E1.22318
G1 X103.518 Y97.593 F7800.000
G1 X103.664 Y97.736 F600.000 E1.22921
G1 F1800.000 E0.22921
G92 E0
G1 Z1.300 F7800.000
G1 X100.244 Y97.700
G1 X100.164 Y102.300
G1 X101.414 Y102.321
G1 F1800.000 E1.00000
G1 X104.384 Y102.387 F600.000 E1.08736
G1 X104.380 Y102.391 F7800.000
G1 X104.499 Y102.515 F600.000 E1.09242
G1 X104.499 Y102.515 F7800.000
G1 X104.590 Y102.551 F600.000 E1.09529
G1 X101.414 Y102.321 F7800.000
G1 X101.313 Y102.309 F600.000 E1.09828
G1 X101.313 Y102.309 F7800.000
G1 X100.643 Y102.308 F600.000 E1.11799
G1 X100.643 Y102.308 F7800.000
G1 X97.575 Y102.346 F600.000 E1.20820
G1 X97.575 Y102.346 F7800.000
G1 X97.157 Y102.351 F600.000 E1.22050
G1 X97.157 Y102.351 F7800.000
G1 X96.015 Y102.397 F600.000 E1.25411
G1 X96.015 Y102.397 F7800.000
G1 X95.758 Y102.401 F600.000 E1.26168
G1 X95.758 Y102.401 F7800.000
G1 X95.722 Y102.395 F600.000 E1.26273
G1 X95.722 Y102.395 F7800.000
G1 X95.464 Y102.431 F600.000 E1.27040
G1 F1800.000 E0.27040
G92 E0
G1 X99.756 Y102.300 F7800.000
G1 X99.756 Y97.700
G1 X95.319 Y97.795
G1 F1800.000 E1.00000
G1 X95.501 Y97.575 F600.000 E1.00839
G1 X95.501 Y97.575 F7800.000
G1 X95.399 Y97.507 F600.000 E1.01197
G1 X95.517 Y97.597 F7800.000
G1 X95.640 Y97.610 F600.000 E1.01561
G1 X95.640 Y97.610 F7800.000
G1 X95.838 Y97.617 F600.000 E1.02142
G1 X95.838 Y97.617 F7800.000
G1 X96.015 Y97.605 F600.000 E1.02664
G1 X96.015 Y97.605 F7800.000
G1 X96.419 Y97.623 F600.000 E1.03855
G1 X96.419 Y97.623 F7800.000
G1 X98.586 Y97.684 F600.000 E1.10228
G1 X98.586 Y97.684 F7800.000
G1 X102.957 Y97.631 F600.000 E1.23082
G1 X102.957 Y97.631 F7800.000
G1 X103.050 Y97.642 F600.000 E1.23358
G1 X103.050 Y97.642 F7800.000
G1 X104.536 Y97.569 F600.000 E1.27732
G1 X104.490 Y97.600 F7800.000
G1 X104.602 Y97.703 F600.000 E1.28179
G1 F1800.000 E0.28179
G92 E0
G1 Z1.700 F7800.000
G1 X102.863 Y97.700
G1 X100.000 Y97.905
G1 X99.989 Y102.099
G1 X102.830 Y102.300
G1 X104.299 Y102.194
G1 F1800.000 E1.00000
G1 X104.805 Y102.234 F600.000 E1.01491
G1 X105.416 Y102.252 E1.03290
G1 X105.414 Y102.540 E1.04137
G1 X94.587 Y102.540 E1.35974
G1 X94.584 Y102.252 E1.36820
G1 X95.195 Y102.234 E1.38618
G1 X96.172 Y102.158 E1.41498
G1 X98.530 Y101.915 E1.48468
G1 X99.269 Y101.875 E1.50645
G1 X100.000 Y101.859 E1.52795
G1 X101.470 Y101.915 E1.57121
G1 X104.222 Y102.188 E1.65251
G1 X104.514 Y102.653 F7800.000
G1 X95.478 Y102.386
G1 X95.654 Y102.368 F600.000 E1.65771
G1 X95.839 Y102.124 E1.66669
G1 X95.654 Y102.368 F7800.000
G1 X95.734 Y102.457 F600.000 E1.67021
G1 X95.734 Y102.457 F7800.000
G1 X95.808 Y102.496 F600.000 E1.67268
G1 X95.478 Y102.386 F7800.000
G1 X94.874 Y102.387 F600.000 E1.69045
G1 X94.874 Y102.387 F7800.000
G1 X94.737 Y102.402 F600.000 E1.69451
G1 X94.624 Y102.302 F7800.000
G1 X94.737 Y102.402 F600.000 E1.69894
G1 X94.611 Y102.500 E1.70364
G1 X104.184 Y102.157 F7800.000
G1 X104.256 Y102.285 F600.000 E1.70794
G1 X104.256 Y102.285 F7800.000
G1 X104.505 Y102.372 F600.000 E1.71571
G1 X105.330 Y102.328 E1.74000
G1 X104.334 Y102.359 F7800.000
G1 X104.253 Y102.456 F600.000 E1.74372
G1 X104.253 Y102.456 F7800.000
G1 X104.179 Y102.496 F600.000 E1.74618
G1 F1800.000 E0.74618
G92 E0
G1 X102.830 Y102.300 F7800.000
G1 X99.989 Y102.099
G1 X100.000 Y97.905
G1 X102.863 Y97.700
G1 X103.852 Y97.846
G1 F1800.000 E1.00000
G1 X101.468 Y98.086 F600.000 E1.07045
G1 X100.730 Y98.131 E1.09220
G1 X100.000 Y98.146 E1.11367
G1 X99.270 Y98.131 E1.13514
G1 X98.532 Y98.086 E1.15689
G1 X95.478 Y97.783 E1.24713
G1 X94.584 Y97.742 E1.27345
G1 X94.586 Y97.460 E1.28176
G1 X105.413 Y97.460 E1.60013
G1 X105.415 Y97.742 E1.60844
G1 X104.522 Y97.783 E1.63474
G1 X103.930 Y97.838 E1.65223
G1 X103.549 Y97.423 F7800.000
G1 X94.839 Y97.666
G1 X94.875 Y97.608 F600.000 E1.65423
G1 X95.015 Y97.613 F7800.000
G1 X94.707 Y97.472 F600.000 E1.66421
G1 X94.707 Y97.472 F7800.000
G1 X94.490 Y97.356 F600.000 E1.67145
G1 X95.015 Y97.613 F7800.000
G1 X95.635 Y97.629 F600.000 E1.68969
G1 X95.762 Y97.521 E1.69459
G1 X95.635 Y97.629 F7800.000
G1 X95.752 Y97.745 F600.000 E1.69944
G1 X95.752 Y97.745 F7800.000
G1 X95.778 Y97.801 F600.000 E1.70124
G1 X104.231 Y97.793 F7800.000
G1 X104.367 Y97.632 F600.000 E1.70745
G1 X104.288 Y97.547 F7800.000
G1 X104.238 Y97.521 F600.000 E1.70912
G1 X104.288 Y97.547 F7800.000
G1 X104.619 Y97.626 F600.000 E1.71911
G1 X104.619 Y97.626 F7800.000
G1 X104.791 Y97.608 F600.000 E1.72420
G1 X104.791 Y97.608 F7800.000
G1 X105.261 Y97.602 F600.000 E1.73802
G1 X105.389 Y97.500 E1.74284
G1 X105.261 Y97.602 F7800.000
G1 X105.379 Y97.697 F600.000 E1.74731
G1 F1800.000 E0.74731
G92 E0
G1 Z2.100 F7800.000
G1 X104.503 Y97.700
G1 X100.000 Y98.202
G1 X99.981 Y101.791
G1 X104.516 Y102.300
G1 X105.063 Y102.188
G1 F1800.000 E1.00000
G1 X105.555 Y102.234 F600.000 E1.01453
G1 X106.061 Y102.251 E1.02943
G1 X106.052 Y102.540 E1.03794
G1 X93.962 Y102.540 E1.39344
G1 X93.941 Y102.251 E1.40196
G1 X94.445 Y102.234 E1.41680
G1 X95.280 Y102.157 E1.44146
G1 X96.186 Y102.032 E1.46834
G1 X97.875 Y101.745 E1.51872
G1 X98.607 Y101.649 E1.54042
G1 X99.307 Y101.575 E1.56115
G1 X100.000 Y101.550 E1.58152
G1 X100.693 Y101.575 E1.60190
G1 X101.393 Y101.649 E1.62262
G1 X102.125 Y101.745 E1.64432
G1 X103.814 Y102.032 E1.69471
G1 X104.985 Y102.181 E1.72942
G1 X105.265 Y102.639 F7800.000
G1 X94.344 Y102.386
G1 X94.648 Y102.182 F600.000 E1.74018
G1 X94.738 Y101.972 E1.74691
G1 X95.150 Y101.953 E1.75904
G1 X94.536 Y102.481 F7800.000
G1 X94.445 Y102.388 F600.000 E1.76289
G1 X94.344 Y102.386 F7800.000
G1 X94.154 Y102.387 F600.000 E1.76847
G1 X94.154 Y102.387 F7800.000
G1 X94.057 Y102.457 F600.000 E1.77199
G1 X94.057 Y102.457 F7800.000
G1 X93.890 Y102.605 F600.000 E1.77856
G1 X105.354 Y102.128 F7800.000
G1 X105.570 Y102.375 F600.000 E1.78822
G1 X105.464 Y102.481 E1.79261
G1 X105.570 Y102.375 F7800.000
G1 X105.902 Y102.396 F600.000 E1.80241
G1 X106.044 Y102.258 E1.80821
G1 X105.902 Y102.396 F7800.000
G1 X105.943 Y102.446 F600.000 E1.81012
G1 X105.943 Y102.446 F7800.000
G1 X106.016 Y102.492 F600.000 E1.81266
G1 X97.882 Y102.175 F7800.000
G1 X97.830 Y102.123 F600.000 E1.81380
G1 X98.167 Y102.075 E1.81904
G1 X98.268 Y102.175 E1.82123
G1 X98.509 Y102.031 E1.82556
G1 X98.653 Y102.175 E1.82871
G1 X98.853 Y101.990 E1.83291
G1 X99.038 Y102.175 E1.83695
G1 X99.201 Y101.953 E1.84120
G1 X99.423 Y102.175 E1.84605
G1 X99.564 Y101.931 E1.85040
G1 X99.808 Y102.175 E1.85574
G1 X99.936 Y101.917 E1.86017
G1 X100.194 Y102.175 E1.86580
G1 X100.330 Y101.927 E1.87017
G1 X100.579 Y102.175 E1.87559
G1 X100.735 Y101.946 E1.87986
G1 X100.964 Y102.175 E1.88487
G1 X101.166 Y101.992 E1.88907
G1 X101.349 Y102.175 E1.89307
G1 X101.605 Y102.046 E1.89749
G1 X101.735 Y102.175 E1.90031
G1 X102.047 Y102.102 E1.90526
G1 X102.120 Y102.175 E1.90685
G1 F1800.000 E0.90685
G92 E0
G1 X99.981 Y101.791 F7800.000
G1 X100.000 Y98.202
G1 X101.401 Y98.356
G1 F1800.000 E1.00000
G1 X100.691 Y98.418 F600.000 E1.02095
G1 X100.000 Y98.445 E1.04128
G1 X99.309 Y98.418 E1.06160
G1 X98.599 Y98.356 E1.08255
G1 X95.528 Y97.874 E1.17398
G1 X94.683 Y97.783 E1.19897
G1 X93.939 Y97.744 E1.22088
G1 X93.948 Y97.460 E1.22925
G1 X106.052 Y97.460 E1.58517
G1 X106.061 Y97.744 E1.59353
G1 X105.317 Y97.783 E1.61544
G1 X104.472 Y97.874 E1.64044
G1 X101.478 Y98.345 E1.72957
G1 X101.093 Y97.937 F7800.000
G1 X94.554 Y97.814
G1 X94.407 Y97.615 F600.000 E1.73686
G1 X94.407 Y97.615 F7800.000
G1 X94.506 Y97.511 F600.000 E1.74109
G1 X94.506 Y97.511 F7800.000
G1 X94.552 Y97.489 F600.000 E1.74259
G1 X94.407 Y97.615 F7800.000
G1 X94.323 Y97.618 F600.000 E1.74505
G1 X94.323 Y97.618 F7800.000
G1 X94.275 Y97.606 F600.000 E1.74652
G1 X94.275 Y97.606 F7800.000
G1 X94.209 Y97.608 F600.000 E1.74844
G1 X94.126 Y97.738 F7800.000
G1 X94.209 Y97.608 F600.000 E1.75298
G1 X94.044 Y97.460 E1.75952
G1 X94.044 Y97.460 F7800.000
G1 X93.997 Y97.444 F600.000 E1.76096
G1 X105.342 Y97.912 F7800.000
G1 X105.585 Y97.606 F600.000 E1.77245
G1 X105.448 Y97.489 E1.77775
G1 X105.585 Y97.606 F7800.000
G1 X105.956 Y97.558 F600.000 E1.78877
G1 X105.938 Y97.579 F7800.000
G1 X105.945 Y97.588 F600.000 E1.78913
G1 X97.814 Y97.870 F7800.000
G1 X97.769 Y97.825 F600.000 E1.79012
G1 X98.154 Y97.825 E1.79605
G1 X98.271 Y97.941 E1.79859
G1 X98.539 Y97.825 E1.80310
G1 X98.714 Y98.000 E1.80692
G1 X98.924 Y97.825 E1.81113
G1 X99.135 Y98.035 E1.81572
G1 X99.310 Y97.825 E1.81994
G1 X99.547 Y98.062 E1.82511
G1 X99.695 Y97.825 E1.82942
G1 X99.948 Y98.078 E1.83493
G1 X100.080 Y97.825 E1.83933
G1 X100.322 Y98.067 E1.84461
G1 X100.465 Y97.825 E1.84895
G1 X100.691 Y98.050 E1.85386
G1 X100.850 Y97.825 E1.85812
G1 X101.046 Y98.020 E1.86238
G1 X101.236 Y97.825 E1.86658
G1 X101.399 Y97.988 E1.87013
G1 X101.621 Y97.825 E1.87438
G1 X101.736 Y97.940 E1.87690
G1 X102.006 Y97.825 E1.88142
G1 X102.073 Y97.892 E1.88289
G1 X102.397 Y97.830 E1.88796
G1 F1800.000 E0.88796
G92 E0
G1 Z2.500 F7800.000
G1 X100.000 Y98.712
G1 X99.974 Y101.273
G1 X101.634 Y101.276
G1 F1800.000 E1.00000
G1 X103.873 Y101.860 F600.000 E1.06803
G1 X104.677 Y102.031 E1.09220
G1 X105.448 Y102.157 E1.11520
G1 X106.195 Y102.234 E1.13726
G1 X106.633 Y102.250 E1.15016
G1 X106.638 Y102.540 E1.15868
G1 X93.362 Y102.540 E1.54907
G1 X93.367 Y102.250 E1.55760
G1 X93.805 Y102.234 E1.57050
G1 X94.552 Y102.157 E1.59256
G1 X95.323 Y102.031 E1.61556
G1 X96.127 Y101.860 E1.63973
G1 X98.681 Y101.198 E1.71729
G1 X99.357 Y101.078 E1.73748
G1 X100.000 Y101.031 E1.75645
G1 X100.643 Y101.078 E1.77542
G1 X101.324 Y101.198 E1.79575
G1 X101.558 Y101.257 E1.80285
G1 X101.774 Y101.776 F7800.000
G1 X93.460 Y102.462
G1 X93.462 Y102.338 F600.000 E1.80651
G1 X93.508 Y102.393 F7800.000
G1 X93.682 Y102.476 F600.000 E1.81218
G1 X93.682 Y102.476 F7800.000
G1 X93.692 Y102.494 F600.000 E1.81280
G1 X93.582 Y102.391 F7800.000
G1 X93.751 Y102.225 F600.000 E1.81976
G1 X93.460 Y102.462 F7800.000
G1 X93.342 Y102.550 F600.000 E1.82411
G1 X105.933 Y102.053 F7800.000
G1 X106.076 Y101.983 F600.000 E1.82879
G1 X106.421 Y102.388 E1.84444
G1 X106.318 Y102.476 E1.84842
G1 X106.318 Y102.476 F7800.000
G1 X106.308 Y102.494 F600.000 E1.84904
G1 X106.421 Y102.388 F7800.000
G1 X106.459 Y102.369 F600.000 E1.85028
G1 X106.449 Y102.387 F7800.000
G1 X106.658 Y102.550 F600.000 E1.85810
G1 X100.564 Y101.730 F7800.000
G1 X100.407 Y101.887 F600.000 E1.86731
G1 X99.536 Y101.720 E1.90409
G1 X99.370 Y101.887 E1.91387
G1 X103.574 Y102.156 F7800.000
G1 X103.555 Y102.175 F600.000 E1.91429
G1 X103.267 Y102.078 E1.91897
G1 X103.170 Y102.175 E1.92109
G1 X102.953 Y102.007 E1.92532
G1 X102.785 Y102.175 E1.92900
G1 X102.566 Y102.009 E1.93324
G1 X102.659 Y101.916 E1.93525
G1 X97.447 Y102.120 F7800.000
G1 X97.392 Y102.175 F600.000 E1.93646
G1 X97.231 Y101.951 E1.94071
G1 X97.007 Y102.175 E1.94560
G1 X96.714 Y102.083 E1.95033
G1 X96.621 Y102.175 E1.95235
G1 X94.228 Y102.300 F7800.000
G1 X99.974 Y101.273
G1 X100.000 Y98.712
G1 X97.655 Y98.541
G1 X96.368 Y98.199 F600.000 E1.99152
G1 X95.552 Y98.015 E2.01611
G1 X94.768 Y97.876 E2.03954
G1 X94.024 Y97.784 E2.06157
G1 X93.367 Y97.745 E2.08094
G1 X93.362 Y97.460 E2.08933
G1 X106.624 Y97.460 E2.47930
G1 X106.619 Y97.746 E2.48772
G1 X105.976 Y97.784 E2.50667
G1 X105.232 Y97.876 E2.52870
G1 X104.448 Y98.015 E2.55213
G1 X103.632 Y98.199 E2.57672
G1 X101.314 Y98.807 E2.64718
G1 X100.653 Y98.917 E2.66690
G1 X100.000 Y98.959 E2.68613
G1 X99.347 Y98.917 E2.70536
G1 X98.686 Y98.807 E2.72508
G1 X97.731 Y98.562 E2.75408
G1 X97.519 Y98.040 F7800.000
G1 X93.654 Y97.764
G1 X93.547 Y97.608 F600.000 E2.75966
G1 X93.513 Y97.606 F7800.000
G1 X93.443 Y97.712 F600.000 E2.76339
G1 X93.441 Y97.520 F7800.000
G1 X93.342 Y97.450 F600.000 E2.76697
G1 X93.441 Y97.520 F7800.000
G1 X93.547 Y97.608 F600.000 E2.77102
G1 X93.700 Y97.474 E2.77700
G1 X106.294 Y97.829 F7800.000
